X:1
T:Holdseligs Hertze
T:Antonio Brunelli
T:Source : Tricinia--Johann-Jacob Gastoldi und anderer Autorn---Nürnberg---P.Kauffmann---1607. Editor : André Vierendeels (22/03/17).
T:Notes : Original clefs : G2, G2, F3 Editorial accidentals above the staff Text Middle German by Valentin Hauszmann Sub-heading : from "Affettuoso Invaghito"    
T:Holdseligs Hertze
T:©
T:©
T:©
T:©
C:Antonio Brunelli
Z:©
%%score [ 1 2 3 ]
L:1/8
Q:1/4=121
M:4/4
K:F
V:1 treble nm="Soprano 1" snm="S 1"
V:2 treble nm="Soprano 2" snm="S 2"
V:3 treble-8 nm="Tenor" snm="T"
V:1
"^1)""^2)" d6 cB | A6 A2 | z2 f4 _ed | c6 c2 | z2 c2 c3 c | c2 _e2 d4 | c4 z GGA | B2 B2 A4 | G8 :: %9
w: Hold- se- ligs|Hert- ze,|seht, was für|schmer- ze,|ihr mir habs|auff- ge- le-|get, wie Lie- be|brunst er- re-|get,|
w: Lie- blichs Ge-|sich- te,|in eu- re|pflich- te,|gib ich mich|un ver- dros-|sen, ich serdt mich|nicht ver- dros-|sen,|
 z2 d2 _e2 c2 | d4 A4 | G2 A2 B4- | B2 c2 d4- | d2 cB c4 | d2 f4 _ed | c2 c4 BA | G2 _e4 dc | %17
w: durch eu- re|zucht und|freund- li- che|_ ge- ber-||den, ich weisz ge-|wisz, ihr seyt die|schönst, ich weisz ge-|
w: nach eu- rem|wol- ge-|fal- len will|_ ich le-||ben, bin sonst ge-|neigt keim Weibs- bild|als, bin sonst ge-|
 B2 d4 cB | A8 | B4 A4 | G8 | z2 d2 d2 e2 | f2 c2 c2 d2 | _e3 B B2 c2 | d2 A2 A2 B2 | c8- | c4 B4 | %27
w: wisz, ihr seyt die|schönst|auff Er-|den,|ich weisz ge-|wisz, ihr seyt die|Schönst, ich weisz ge-|wisz, ihr seyt die|schönst|_ auff|
w: neigt kein Weibs- bild|als|euch e-|be,|bin sonst ge-|neigt keim Weibs- bild|als, bin sonst ge-|neigt keim Weibs- bild|als|_ euch|
 A8 | G8 :| %29
w: Er-|den.|
w: e-|ben.|
V:2
"^1)""^3)" B6 AG | ^F6 F2 | z2 d4 cB | A6 A2 | z2 A2 A3 A | AB c4 =B2 | cGGA B2 c2 | ^F2 G4 F2 | %8
w: Hold- se- ligs|Hert- ze,|seht, was für|schmer- ze,|ihr mir habs|auff- ge- le- *|get, wie Lie- be brunst er-|re- * *|
w: Zar- tes Jung-|fräu- lein,|eur kla- re|äug- lein|laszt freund- lich|auff mich bli- *|cken, so offt es sich will|schik- * *|
 G8 :: z8 | z2 B2 c2 A2 | B6 F2 | G6 F2 | A2 B2 B2 A2 | B2 d4 cB | A2 A4 GF | E2 G4 FE | D2 B4 AG | %18
w: get,||durch eu- re|zucht und|freund- li-|che ge- ber _|den, ich weisz ge-|wisz, ihr seyt die|schönst, ich wzisz ge-|wisz, ihr seyt die|
w: ken,||und ne- met|auff eurn|Die- ner,|der es mei- *|net, es treu- lich|gut, es treu- lich|gut, sein dien- ste|nicht, sein dien- ste|
 F4 E4 | ^F2 G4 F2 | G8 | F8 | F8 | G8 | A4 F4 | G8 | ^F4 G4- | G4 ^F4 | G8 :| %29
w: schönst auff|Er- * *|den,|ihr|seyt|die|schönst auff|Er-|||den|
w: nicht ver-|klei- * *|net,|sein|dien-|ste|nicht ver|klei-|||net.|
V:3
"^1)" G4 B,2 C2 | D4 D4 | B4 D2 _E2 | F4 F4 | z2 F2 F3 F | F2 C2 G4 | CccA G2 _E2 | D8 | G8 :: %9
w: Hold- se- ligs|Her- ze,|seht, was fûr|schmer- ze,|ihr mir habs|auff- ge- le-|get, wie Lie- be brunst er-|re-|get|
 B4 c2 A2 | B4 F4 | G6 D2 | _E4 B,4 | F8 | B,2 B,2 D2 _E2 | F2 F2 A2 B2 | c3 C _E2 F2 | %17
w: durch eu- re|zucht und|freund- li-|che ge-|ber-|den, ich weisz ge-|wisz, ihr seyt die|schönst, ich weisz ge-|
 G2 G2 B2 c2 | d4 ^c4 | d8 | G8 | B8 | A8 | G8 | F8 | _E8 | D8- | D8 | G,8 :| %29
w: wisz, ihr seyt die|schönst auff|Er-|den,|ihr|seyt|die|schönst|auff|Er-||den.|

